X:121
T:Grommet
R:polka 32 reel
C:Jo Freya (Old Swan Band)
Z:Neil Gledhill (Old Swan Band)
M:2/4
L:1/16
Q:1/4=110
K:D
|:DFAF Adfa|gfef d2A2|B3A GABG|A2 AB AGFE|
DFAF Adfa|gfef d3e2|f2ed cdec|d2dc d4:|]
|:fdAf dAfd|edcB A4|ecAe cAec|dcde fde=f|

